src/assets/icon-implants.svg

<svg xmlns="http://www.w3.org/2000/svg" width="107" height="107" viewBox="0 0 107 107" fill="none"><g id="Implant-new-icon.svg"><g id="Implant-new-icon.svg_2" clip-path="url(#clip0_150_283)"><g id="Layer 1"><path id="Vector" d="M53.6631 106.486C82.9303 106.486 106.656 82.7603 106.656 53.493C106.656 24.2258 82.9303 0.5 53.6631 0.5C24.3958 0.5 0.670044 24.2258 0.670044 53.493C0.670044 82.7603 24.3958 106.486 53.6631 106.486Z" fill="#306B4D"></path><g id="Group 10"><g id="g122"><path id="path124" d="M59.8422 71.5342L47.5633 73.8003L46.5673 68.6804L60.8864 66.2794L59.8422 71.5342ZM58.235 79.6194C57.8333 81.644 55.8267 83.1127 53.4655 83.1127C51.1043 83.1127 49.0977 81.644 48.6973 79.6296L48.5576 78.9136L58.7492 77.0323L58.235 79.6194ZM81.9683 38.5522C82.1911 37.1316 81.2192 35.7989 79.798 35.5779C78.3979 35.3527 77.0459 36.3253 76.8237 37.7483C76.1318 42.169 74.2499 45.3806 73.0545 47.0565C65.5324 51.0166 58.356 51.8621 53.6462 51.8621C52.4761 51.8621 51.3434 51.8121 50.2486 51.723C48.796 51.5995 47.5591 52.672 47.4405 54.1059C47.3225 55.5391 48.3896 56.7971 49.8234 56.9139C51.0531 57.0157 52.3286 57.0705 53.6462 57.0705C56.1808 57.0705 59.3623 56.8387 62.9044 56.1269L61.9728 60.8156L45.5725 63.5653L43.5244 53.0327C43.4949 52.884 43.4099 52.7666 43.3576 52.6293C43.3889 51.4845 42.7036 50.4114 41.5558 50.0639C39.0229 49.2967 36.5738 48.282 34.2601 47.0643C33.4104 45.8666 32.6685 44.5917 32.0783 43.2494C30.9925 40.7737 30.3705 38.1475 30.2193 35.2088C30.0429 30.9362 31.8952 27.0718 35.1724 24.8732C37.9925 22.9799 41.3522 22.6938 44.3873 24.0861C44.7095 24.2349 45.0323 24.3914 45.3539 24.5582C46.2355 25.0135 47.1075 25.5398 47.9469 26.1198C51.4096 28.5213 55.8852 28.5201 59.3454 26.121C60.1849 25.5398 61.0569 25.0135 61.9355 24.5595C62.2601 24.3914 62.5828 24.2349 62.902 24.0873C65.4475 22.9191 68.2454 22.9251 70.7758 24.1132C73.6345 25.4519 75.7759 28.0763 76.6503 31.3125C77.0242 32.7012 78.4551 33.5178 79.845 33.1462C81.2336 32.7711 82.0532 31.3408 81.6787 29.9522C80.402 25.2345 77.2344 21.3864 72.9847 19.3968C69.0451 17.548 64.6924 17.5348 60.7251 19.3558C60.3348 19.5353 59.9428 19.7274 59.5447 19.9321C58.468 20.4892 57.4021 21.1311 56.3802 21.8393C54.6964 23.007 52.6008 23.0106 50.9122 21.8381C49.8896 21.1311 48.8243 20.4892 47.7446 19.9309C47.3489 19.7274 46.9575 19.5353 46.5643 19.3546C41.9171 17.2222 36.5695 17.6648 32.2716 20.5476C27.4763 23.7645 24.764 29.3253 25.0163 35.4316C25.0163 35.4376 25.0289 35.705 25.0301 35.711C25.2018 39.0478 25.9684 42.2877 27.3101 45.342C28.1008 47.1456 29.0938 48.8631 30.2615 50.4517C30.4036 50.645 30.6065 50.751 30.786 50.8925C30.8294 50.9467 30.8998 50.978 30.948 51.0292C31.0419 51.0913 31.1094 51.1954 31.2093 51.2442C31.3364 51.3478 31.4364 51.4755 31.5863 51.5555C33.7862 52.7292 36.1191 53.6837 38.5038 54.4979L40.4345 64.427L37.503 64.9184C36.0854 65.1563 35.1279 66.4992 35.3657 67.918C35.5789 69.191 36.6815 70.0913 37.9317 70.0913C38.0738 70.0913 38.219 70.0799 38.3653 70.0558L41.4293 69.5421L42.4416 74.7457L39.206 75.3431C37.792 75.6039 36.8574 76.9618 37.1175 78.377C37.3494 79.6308 38.4442 80.5082 39.6763 80.5082C39.8329 80.5082 39.9919 80.4944 40.152 80.4648L43.4358 79.859L43.5864 80.6341C44.4716 85.0885 48.6268 88.3212 53.4655 88.3212C58.3042 88.3212 62.4594 85.0885 63.3446 80.6341L64.2624 76.0152L68.3712 75.2564C69.7852 74.9956 70.7198 73.6377 70.459 72.2225C70.1971 70.8085 68.8457 69.8661 67.4252 70.1347L65.3554 70.5165L66.3809 65.358L69.4281 64.8473C70.8457 64.6095 71.8032 63.2666 71.5653 61.8478C71.3274 60.4296 69.9923 59.4763 68.5657 59.71L67.4667 59.8942L68.4447 54.9736C68.467 54.8616 68.4362 54.7569 68.4441 54.6467C70.7969 53.8662 73.2298 52.8762 75.7054 51.5555C75.8548 51.4761 75.9541 51.3484 76.0812 51.246C76.1342 51.2201 76.1685 51.1617 76.2197 51.1316C76.3106 51.0473 76.4299 50.9883 76.5064 50.8925C76.6828 50.7534 76.8827 50.651 77.023 50.462C78.8044 48.0622 81.1102 44.0479 81.9683 38.5522Z" fill="white"></path></g><g id="g126"><path id="path128" d="M59.8958 28.945C57.4785 30.757 54.9427 31.028 53.6461 31.028C50.6243 31.028 48.4335 29.7218 47.3959 28.945C46.2438 28.0802 44.6137 28.3169 43.7501 29.4653C42.8872 30.6161 43.1196 32.2487 44.2704 33.111C45.8265 34.2781 49.1139 36.2365 53.6461 36.2365C55.5912 36.2365 59.3959 35.8306 63.0212 33.111C64.172 32.2487 64.405 30.6161 63.5415 29.4653C62.6803 28.3169 61.0502 28.0802 59.8958 28.945Z" fill="white"></path></g></g></g></g></g><defs><clipPath id="clip0_150_283"><rect width="105.98" height="105.98" fill="white" transform="translate(0.670044 0.5)"></rect></clipPath></defs></svg>

<?xml version="1.0" encoding="UTF-8"?>
<svg id="Layer_1" xmlns="http://www.w3.org/2000/svg" version="1.1" xmlns:xlink="http://www.w3.org/1999/xlink" viewBox="0 0 107 107">
  <!-- Generator: Adobe Illustrator 29.8.3, SVG Export Plug-In . SVG Version: 2.1.1 Build 3)  -->
  <defs>
    <style>
      .st0 {
        fill: #fff;
      }

      .st1 {
        fill: none;
      }

      .st2 {
        fill: #336799;
      }

      .st3 {
        clip-path: url(#clippath);
      }
    </style>
    <clipPath id="clippath">
      <rect class="st1" x=".67" y=".5" width="105.98" height="105.98"/>
    </clipPath>
  </defs>
  <g id="Implant-new-icon.svg">
    <g class="st3">
      <g id="Implant-new-icon.svg_2">
        <g id="Layer_11" data-name="Layer_1">
          <path id="Vector" class="st2" d="M53.66,106.49c29.27,0,52.99-23.73,52.99-52.99S82.93.5,53.66.5.67,24.23.67,53.49s23.73,52.99,52.99,52.99Z"/>
          <g id="Group_10">
            <g id="g122">
              <path id="path124" class="st0" d="M59.84,71.53l-12.28,2.27-1-5.12,14.32-2.4-1.04,5.25ZM58.24,79.62c-.4,2.02-2.41,3.49-4.77,3.49s-4.37-1.47-4.77-3.48l-.14-.72,10.19-1.88-.51,2.59ZM81.97,38.55c.22-1.42-.75-2.75-2.17-2.97-1.4-.23-2.75.75-2.97,2.17-.69,4.42-2.57,7.63-3.77,9.31-7.52,3.96-14.7,4.81-19.41,4.81-1.17,0-2.3-.05-3.4-.14-1.45-.12-2.69.95-2.81,2.38-.12,1.43.95,2.69,2.38,2.81,1.23.1,2.51.16,3.82.16,2.53,0,5.72-.23,9.26-.94l-.93,4.69-16.4,2.75-2.05-10.53c-.03-.15-.11-.27-.17-.4.03-1.14-.65-2.22-1.8-2.57-2.53-.77-4.98-1.78-7.3-3-.85-1.2-1.59-2.47-2.18-3.81-1.09-2.48-1.71-5.1-1.86-8.04-.18-4.27,1.68-8.14,4.95-10.34,2.82-1.89,6.18-2.18,9.21-.79.32.15.65.31.97.47.88.46,1.75.98,2.59,1.56,3.46,2.4,7.94,2.4,11.4,0,.84-.58,1.71-1.11,2.59-1.56.32-.17.65-.32.97-.47,2.55-1.17,5.34-1.16,7.87.03,2.86,1.34,5,3.96,5.87,7.2.37,1.39,1.8,2.21,3.19,1.83,1.39-.38,2.21-1.81,1.83-3.19-1.28-4.72-4.44-8.57-8.69-10.56-3.94-1.85-8.29-1.86-12.26-.04-.39.18-.78.37-1.18.58-1.08.56-2.14,1.2-3.16,1.91-1.68,1.17-3.78,1.17-5.47,0-1.02-.71-2.09-1.35-3.17-1.91-.4-.2-.79-.4-1.18-.58-4.65-2.13-9.99-1.69-14.29,1.19-4.8,3.22-7.51,8.78-7.26,14.88,0,0,.01.27.01.28.17,3.34.94,6.58,2.28,9.63.79,1.8,1.78,3.52,2.95,5.11.14.19.35.3.52.44.04.05.11.09.16.14.09.06.16.17.26.22.13.1.23.23.38.31,2.2,1.17,4.53,2.13,6.92,2.94l1.93,9.93-2.93.49c-1.42.24-2.38,1.58-2.14,3,.21,1.27,1.32,2.17,2.57,2.17.14,0,.29-.01.43-.04l3.06-.51,1.01,5.2-3.24.6c-1.41.26-2.35,1.62-2.09,3.03.23,1.25,1.33,2.13,2.56,2.13.16,0,.32-.01.48-.04l3.28-.61.15.78c.89,4.45,5.04,7.69,9.88,7.69s8.99-3.23,9.88-7.69l.92-4.62,4.11-.76c1.41-.26,2.35-1.62,2.09-3.03-.26-1.41-1.61-2.36-3.03-2.09l-2.07.38,1.03-5.16,3.05-.51c1.42-.24,2.38-1.58,2.14-3-.24-1.42-1.57-2.37-3-2.14l-1.1.18.98-4.92c.02-.11,0-.22,0-.33,2.35-.78,4.79-1.77,7.26-3.09.15-.08.25-.21.38-.31.05-.03.09-.08.14-.11.09-.08.21-.14.29-.24.18-.14.38-.24.52-.43,1.78-2.4,4.09-6.41,4.95-11.91Z"/>
            </g>
            <g id="g126">
              <path id="path128" class="st0" d="M59.9,28.94c-2.42,1.81-4.95,2.08-6.25,2.08-3.02,0-5.21-1.31-6.25-2.08-1.15-.86-2.78-.63-3.65.52-.86,1.15-.63,2.78.52,3.65,1.56,1.17,4.84,3.13,9.38,3.13,1.95,0,5.75-.41,9.38-3.13,1.15-.86,1.38-2.49.52-3.65-.86-1.15-2.49-1.39-3.65-.52Z"/>
            </g>
          </g>
        </g>
      </g>
    </g>
  </g>
</svg>
